packages/icons/svg/24/FaceEdit.svg

<svg width="24" height="24" viewBox="0 0 24 24" fill="none" xmlns="http://www.w3.org/2000/svg">
<path fill-rule="evenodd" clip-rule="evenodd" d="M6.34315 16.2426C6.73367 15.8521 7.36684 15.8521 7.75736 16.2426C10.1005 18.5857 13.8995 18.5857 16.2426 16.2426C16.6332 15.8521 17.2663 15.8521 17.6569 16.2426C18.0474 16.6331 18.0474 17.2663 17.6569 17.6568C14.5327 20.781 9.46734 20.781 6.34315 17.6568C5.95262 17.2663 5.95262 16.6331 6.34315 16.2426Z" fill="#858585"/>
<path fill-rule="evenodd" clip-rule="evenodd" d="M15 5C15 4.44772 15.4477 4 16 4H20C20.5523 4 21 4.44772 21 5C21 5.55228 20.5523 6 20 6H16C15.4477 6 15 5.55228 15 5Z" fill="#858585"/>
<path fill-rule="evenodd" clip-rule="evenodd" d="M3 5C3 4.44772 3.44772 4 4 4H7.5C10.5376 4 13 6.46243 13 9.5V14C13 14.5523 12.5523 15 12 15C11.4477 15 11 14.5523 11 14V9.5C11 7.567 9.433 6 7.5 6H4C3.44772 6 3 5.55228 3 5Z" fill="#858585"/>
<path d="M8 11C8 12.1046 7.10457 13 6 13C4.89543 13 4 12.1046 4 11C4 9.89543 4.89543 9 6 9C7.10457 9 8 9.89543 8 11Z" fill="#858585"/>
<path d="M20 11C20 12.1046 19.1046 13 18 13C16.8954 13 16 12.1046 16 11C16 9.89543 16.8954 9 18 9C19.1046 9 20 9.89543 20 11Z" fill="#858585"/>
</svg>

<svg width="24" height="24" fill="none" xmlns="http://www.w3.org/2000/svg" viewBox="0 0 24 24"><path fill-rule="evenodd" clip-rule="evenodd" d="M6.343 16.243a1 1 0 011.414 0 6 6 0 008.486 0 1 1 0 011.414 1.414 8 8 0 01-11.314 0 1 1 0 010-1.414zM15 5a1 1 0 011-1h4a1 1 0 110 2h-4a1 1 0 01-1-1zM3 5a1 1 0 011-1h3.5A5.5 5.5 0 0113 9.5V14a1 1 0 11-2 0V9.5A3.5 3.5 0 007.5 6H4a1 1 0 01-1-1z" fill="currentColor"></path><path d="M8 11a2 2 0 11-4 0 2 2 0 014 0zM20 11a2 2 0 11-4 0 2 2 0 014 0z" fill="currentColor"></path></svg>
